client/src/assets/textsms.svg

<?xml version="1.0" encoding="utf-8"?>
<!-- Generator: Adobe Illustrator 25.2.3, SVG Export Plug-In . SVG Version: 6.00 Build 0)  -->
<svg version="1.1" id="Layer_1" xmlns="http://www.w3.org/2000/svg" xmlns:xlink="http://www.w3.org/1999/xlink" x="0px" y="0px"
	 viewBox="0 0 24 24" style="enable-background:new 0 0 24 24;" xml:space="preserve">
<style type="text/css">
	.st0{fill:#FBBC05;}
</style>
<path class="st0" d="M20,2H4C2.9,2,2,2.9,2,4v18l4-4h14c1.1,0,2-0.9,2-2V4C22,2.9,21.1,2,20,2z M20,16H6l-2,2V4h16V16z M7,9h2v2H7V9
	z M11,9h2v2h-2V9z M15,9h2v2h-2V9z"/>
</svg>

<svg width="24" height="24" viewBox="0 0 24 24" fill="none" xmlns="http://www.w3.org/2000/svg">
<path d="M20 2H4C2.9 2 2 2.9 2 4V22L6 18H20C21.1 18 22 17.1 22 16V4C22 2.9 21.1 2 20 2ZM20 16H6L4 18V4H20V16ZM7 9H9V11H7V9ZM11 9H13V11H11V9ZM15 9H17V11H15V9Z" fill="black"/>
</svg>
